source/img/icon-trust-online-class.svg

<svg width="59" height="61" viewBox="0 0 59 61" fill="none" xmlns="http://www.w3.org/2000/svg">
<path d="M54.9643 57.9423C54.9643 58.5052 54.5085 58.9615 53.9464 58.9615H43.7679V55.4758C43.7579 52.2619 41.6124 49.4476 38.5185 48.5911L32.5714 46.9711V45.4284C34.4779 44.0991 35.6175 41.9223 35.625 39.5962V37.6667C35.8844 37.5477 36.0484 37.4631 36.0798 37.4507C36.4252 37.278 36.6429 36.9247 36.6429 36.5385V30.4231L42.0974 28.3224C42.4916 28.1716 42.752 27.7929 42.752 27.3704C42.752 26.9478 42.4916 26.5696 42.0974 26.4183L28.8653 21.3222C28.6302 21.2326 28.3698 21.2326 28.1347 21.3222L14.9026 26.4183C14.5109 26.5691 14.252 26.9454 14.25 27.3654V32.0395L11.4946 34.7986L12.9339 36.2399L14.25 34.922V36.5385H16.2857V34.922L17.6018 36.2399L19.0411 34.7986L16.2857 32.0395V28.8494L20.3571 30.4231V36.5385C20.3552 36.9266 20.5733 37.2825 20.9202 37.4557C20.9516 37.4711 21.1156 37.5527 21.375 37.6717V39.5962C21.3571 41.9292 22.5022 44.118 24.4286 45.4314V46.9711L18.478 48.5921C15.3861 49.4491 13.2416 52.2629 13.2321 55.4758V58.9615H3.05357C2.49146 58.9615 2.03571 58.5052 2.03571 57.9423V18.1923H30.5357V16.1538H2.03571V11.0577C2.03571 10.4948 2.49146 10.0385 3.05357 10.0385H30.5357V8H3.05357C1.36725 8 0 9.36909 0 11.0577V57.9423C0 59.6309 1.36725 61 3.05357 61H53.9464C55.6328 61 57 59.6309 57 57.9423V20.2308H54.9643V57.9423ZM26.4643 47.75V46.4252C27.7908 46.8338 29.2092 46.8338 30.5357 46.4252V47.75C30.5392 48.0421 30.6684 48.3183 30.8911 48.5075L28.5 50.5021L26.1089 48.5084C26.3316 48.3193 26.4613 48.0426 26.4643 47.75ZM28.5 23.3606L38.8963 27.3654L28.5 31.3701L18.1037 27.3654L28.5 23.3606ZM28.1347 33.4136C28.3698 33.5032 28.6302 33.5032 28.8653 33.4136L34.6071 31.2019V35.89C32.6897 36.8137 30.6202 37.379 28.5 37.5577C26.3798 37.3775 24.3103 36.8122 22.3929 35.889V31.2009L28.1347 33.4136ZM23.4107 39.5962L23.4107 38.5023C25.0354 39.1448 26.755 39.5145 28.5 39.5962C30.245 39.5145 31.9646 39.1448 33.5893 38.5023V39.5962C33.5868 41.4171 32.6142 43.0988 31.0377 44.007C29.4612 44.9153 27.5204 44.9118 25.9474 43.9981C25.5632 43.7796 25.2113 43.5088 24.9007 43.1938C23.9415 42.2443 23.4043 40.9473 23.4107 39.5962ZM15.2679 55.4758C15.2753 53.1806 16.8076 51.1705 19.0167 50.5579L23.8178 49.2505L27.8484 52.6137C28.2262 52.9288 28.7738 52.9288 29.1516 52.6137L33.1822 49.2505L37.9803 50.5569C40.1904 51.169 41.7237 53.1796 41.7321 55.4758V58.9615H38.6786V54.8846H36.6429V58.9615H20.3571V54.8846H18.3214V58.9615H15.2679V55.4758Z" fill="#868686"/>
<path d="M6 13H8V15H6V13Z" fill="#868686"/>
<path d="M11 13H13V15H11V13Z" fill="#868686"/>
<path d="M15 13H17V15H15V13Z" fill="#868686"/>
<path d="M56 0H36C34.3433 0 33 1.34326 33 3V15C33 16.6567 34.3433 18 36 18H39V22C39 22.4248 39.2681 22.8032 39.6689 22.9438C39.7754 22.9805 39.8872 22.9995 40 23C40.3037 23 40.5913 22.8623 40.7808 22.625L44.48 18H56C57.6567 18 59 16.6567 59 15V3C59 1.34326 57.6567 0 56 0ZM57 15C57 15.5522 56.5522 16 56 16H44C43.6963 16 43.4087 16.1377 43.2192 16.375L41 19.1489V17C41 16.4478 40.5522 16 40 16H36C35.4478 16 35 15.5522 35 15V3C35 2.44775 35.4478 2 36 2H56C56.5522 2 57 2.44775 57 3V15Z" fill="#868686"/>
<path d="M39 4H54V6H39V4Z" fill="#868686"/>
<path d="M39 8H54V10H39V8Z" fill="#868686"/>
<path d="M39 13H54V15H39V13Z" fill="#868686"/>
</svg>

<svg viewBox="0 0 59 61" fill="none" xmlns="http://www.w3.org/2000/svg"><path d="M54.964 57.942c0 .563-.456 1.02-1.018 1.02H43.768v-3.486a7.164 7.164 0 0 0-5.25-6.885l-5.947-1.62v-1.543a7.138 7.138 0 0 0 3.054-5.832v-1.93c.26-.118.423-.203.455-.215a1.02 1.02 0 0 0 .563-.913v-6.115l5.454-2.1a1.02 1.02 0 0 0 0-1.905l-13.232-5.096a1.026 1.026 0 0 0-.73 0l-13.232 5.096a1.02 1.02 0 0 0-.653.947v4.674l-2.755 2.76 1.439 1.44 1.316-1.317v1.617h2.036v-1.617l1.316 1.318 1.44-1.441-2.756-2.76v-3.19l4.071 1.574v6.116a1.02 1.02 0 0 0 .563.917c.032.015.196.097.455.216v1.924a6.997 6.997 0 0 0 3.054 5.835v1.54l-5.951 1.621a7.163 7.163 0 0 0-5.246 6.884v3.486H3.054a1.019 1.019 0 0 1-1.018-1.02v-39.75h28.5v-2.038h-28.5v-5.096c0-.563.455-1.02 1.018-1.02h27.482V8H3.054A3.056 3.056 0 0 0 0 11.058v46.884A3.056 3.056 0 0 0 3.054 61h50.892A3.056 3.056 0 0 0 57 57.942V20.231h-2.036v37.711Zm-28.5-10.192v-1.325a6.915 6.915 0 0 0 4.072 0v1.325c.003.292.132.568.355.758L28.5 50.502l-2.391-1.994c.223-.189.352-.465.355-.758ZM28.5 23.36l10.396 4.005L28.5 31.37l-10.396-4.005L28.5 23.361Zm-.365 10.054c.235.09.495.09.73 0l5.742-2.212v4.688a17.447 17.447 0 0 1-6.107 1.668c-2.12-.18-4.19-.746-6.107-1.669v-4.688l5.742 2.213Zm-4.724 6.182v-1.094a15.856 15.856 0 0 0 5.089 1.094 15.856 15.856 0 0 0 5.09-1.094v1.094a5.098 5.098 0 0 1-2.552 4.411 5.082 5.082 0 0 1-5.09-.009 4.809 4.809 0 0 1-1.047-.804 5.03 5.03 0 0 1-1.49-3.598Zm-8.143 15.88a5.12 5.12 0 0 1 3.749-4.918l4.8-1.307 4.031 3.363c.378.315.926.315 1.304 0l4.03-3.363 4.798 1.306a5.122 5.122 0 0 1 3.752 4.919v3.486H38.68v-4.077h-2.036v4.077H20.357v-4.077h-2.036v4.077h-3.053v-3.486Z" fill="#868686"/><path d="M6 13h2v2H6v-2ZM11 13h2v2h-2v-2ZM15 13h2v2h-2v-2ZM56 0H36a3 3 0 0 0-3 3v12a3 3 0 0 0 3 3h3v4a1 1 0 0 0 1.78.625L44.48 18H56a3 3 0 0 0 3-3V3a3 3 0 0 0-3-3Zm1 15a1 1 0 0 1-1 1H44a.999.999 0 0 0-.78.375L41 19.149V17a1 1 0 0 0-1-1h-4a1 1 0 0 1-1-1V3a1 1 0 0 1 1-1h20a1 1 0 0 1 1 1v12Z" fill="#868686"/><path d="M39 4h15v2H39V4ZM39 8h15v2H39V8ZM39 13h15v2H39v-2Z" fill="#868686"/></svg>
